svgs/duotone/desktop.svg

<svg xmlns="http://www.w3.org/2000/svg" viewBox="0 0 576 512"><!--! Font Awesome Pro 6.6.0 by @fontawesome - https://fontawesome.com License - https://fontawesome.com/license (Commercial License) Copyright 2024 Fonticons, Inc. --><path class="fa-secondary" style="fill:var(--fa-secondary-color,inherit);opacity:var(--fa-secondary-opacity,.4);" d="M0 64L0 352c0 35.3 28.7 64 64 64l176 0 96 0 176 0c35.3 0 64-28.7 64-64l0-288c0-35.3-28.7-64-64-64L64 0C28.7 0 0 28.7 0 64zm64 0l448 0 0 224L64 288 64 64z"/><path class="fa-primary" style="fill:var(--fa-primary-color,inherit);opacity:var(--fa-primary-opacity,1);" d="M512 64L64 64l0 224 448 0 0-224zM416 448l-69.3 0L336 416l-96 0-10.7 32L160 448c-17.7 0-32 14.3-32 32s14.3 32 32 32l256 0c17.7 0 32-14.3 32-32s-14.3-32-32-32z"/></svg>

<svg xmlns="http://www.w3.org/2000/svg" viewBox="0 0 576 512"><!--! Font Awesome Pro 6.4.2 by @fontawesome - https://fontawesome.com License - https://fontawesome.com/license (Commercial License) Copyright 2023 Fonticons, Inc. --><path class="fa-primary" style="fill:var(--fa-primary-color,inherit);opacity:var(--fa-primary-opacity,1);" d="M512 64H64V288H512V64zM416 448H346.7L336 416H240l-10.7 32H160c-17.7 0-32 14.3-32 32s14.3 32 32 32H416c17.7 0 32-14.3 32-32s-14.3-32-32-32z"/><path class="fa-secondary" style="fill:var(--fa-secondary-color,inherit);opacity:var(--fa-secondary-opacity,.4);" d="M64 0C28.7 0 0 28.7 0 64V352c0 35.3 28.7 64 64 64H512c35.3 0 64-28.7 64-64V64c0-35.3-28.7-64-64-64H64zM512 64V288H64V64H512z"/></svg>
